X: 21792
T: EDINBRO' MARCH
C: By Paul Wallace
R: march
B: K\"ohler's Violin Repository, v.2, 1885 p.179 #2
F: http://www.archive.org/details/klersviolinrepos02rugg
Z: 2012 John Chambers <jc:trillian.mit.edu>
M: C|
L: 1/8
K: A
|:\
v[A4E4C4] v(.G>.F)(.G>.E) | (.A>.B) (.c>.d) e2{g}(.f>.e) |\
d2{f}(.e>.d) c2(d>c) | BAGF EFGE |\
[G4E4C4] v(.G>.F)(.G>.E) | (.A>.B)(.c>.d) [e2c2]a2 |\
agfe caf^d | [e2B2](.[eB]>.[eB]) [e2B2]z2 :|
|: v[d4E4] v(.c>.B)(.c>.A) | (.G>.F)(.G>.E) A2(c>A) |\
F2(G>A) Bcdc | AGFE ^DEFG |\
[A4E4C4] v(.G>.F)(.G>.E) | (.A>.B)(.c>.d) [e2c2]a2 |\
f2(.f>.d) [c2E2][B2E2] | [A2E2](.[AE]>.[AE]) [A2E2]z2 :|

%%sep 2 1 500

